X:1
T:The Cordal
R:jig
M:6/8
L:1/8
K:D
|:BAF ~E2E|FEF DFA|BAF DFA|~B2A Bcd|
|BAF ~E2E|FEF DFA|~d2f edc|1 ~B2A Bcd:|2 ~B2A BcA|]
|:~d2e fed|cBc ecA|dcd fed|~f2e fga|
|dcd fed|cBc ecA|ded cdc|1 ~B2A BcA:|2 ~B2A Bcd|]